public/weather-icons/MostlyCloudy-night.svg

<svg width="40" height="40" viewBox="0 0 40 40" fill="none" xmlns="http://www.w3.org/2000/svg">
<path d="M34 15C34 14.8427 33.7909 14.7881 33.6989 14.9157C32.7083 16.2884 31.0949 17.1819 29.2727 17.1819C26.2603 17.1819 23.8182 14.7398 23.8182 11.7273C23.8182 9.90519 24.7116 8.29175 26.0843 7.30117C26.2119 7.2091 26.1573 7 26 7C21.5817 7 18 10.5817 18 15C18 19.4183 21.5817 23 26 23C30.4183 23 34 19.4183 34 15Z" fill="#F9BE1A"/>
<path d="M9.25607 22.3125C9.08936 21.7372 9 21.1291 9 20.5C9 16.9101 11.9101 14 15.5 14C18.4579 14 20.9543 15.9757 21.7416 18.6794C22.4669 17.6628 23.656 17 25 17C27.2091 17 29 18.7909 29 21C29 21.3453 28.9562 21.6804 28.874 22H29C31.7614 22 34 24.2386 34 27C34 29.7614 31.7614 32 29 32H11C8.23858 32 6 29.7614 6 27C6 24.8519 7.35455 23.0203 9.25607 22.3125Z" fill="#DDDDDD"/>
</svg>

<?xml version="1.0" encoding="utf-8"?>
<!-- Generator: Adobe Illustrator 26.1.0, SVG Export Plug-In . SVG Version: 6.00 Build 0)  -->
<svg version="1.1" id="Шар_1" xmlns="http://www.w3.org/2000/svg" xmlns:xlink="http://www.w3.org/1999/xlink" x="0px" y="0px"
	 viewBox="0 0 40 40" style="enable-background:new 0 0 40 40;" xml:space="preserve">
<style type="text/css">
	.st0{fill:#F9BE1A;}
	.st1{fill:#F0F0F0;}
</style>
<path class="st0" d="M34,15c0-0.2-0.2-0.2-0.3-0.1c-1,1.4-2.6,2.3-4.4,2.3c-3,0-5.5-2.4-5.5-5.5c0-1.8,0.9-3.4,2.3-4.4
	C26.2,7.2,26.2,7,26,7c-4.4,0-8,3.6-8,8s3.6,8,8,8S34,19.4,34,15z"/>
<path class="st1" d="M9.3,22.3C9.1,21.7,9,21.1,9,20.5c0-3.6,2.9-6.5,6.5-6.5c3,0,5.5,2,6.2,4.7c0.7-1,1.9-1.7,3.3-1.7
	c2.2,0,4,1.8,4,4c0,0.3,0,0.7-0.1,1H29c2.8,0,5,2.2,5,5s-2.2,5-5,5H11c-2.8,0-5-2.2-5-5C6,24.9,7.4,23,9.3,22.3z"/>
</svg>
